build/dist/assets/images/services/services-1.svg

<svg width="81" height="64" viewBox="0 0 81 64" fill="none" xmlns="http://www.w3.org/2000/svg">
<g clip-path="url(#clip0_801_698)">
<path d="M40 1C23.8073 1 9 14.4462 9 31.0312C9 31.2882 9.10206 31.5346 9.28374 31.7163C9.46542 31.8979 9.71182 32 9.96875 32C10.2257 32 10.4721 31.8979 10.6538 31.7163C10.8354 31.5346 10.9375 31.2882 10.9375 31.0312C10.9375 16.0641 24.5 2.9375 40 2.9375C44.7839 2.93732 49.4939 4.11809 53.712 6.37502C57.9301 8.63195 61.5258 11.8952 64.1801 15.8753C66.8343 19.8554 68.465 24.4291 68.9275 29.1906C69.3899 33.9521 68.6698 38.7542 66.831 43.1706C64.9923 47.587 62.0917 51.4813 58.3867 54.5077C54.6818 57.5341 50.287 59.5992 45.5925 60.5196C40.8979 61.4399 36.0488 61.1872 31.4753 59.7838C26.9019 58.3804 22.7456 55.8697 19.3753 52.4745C19.1942 52.2921 18.948 52.1891 18.6909 52.1882C18.4339 52.1873 18.187 52.2886 18.0045 52.4697C17.8221 52.6508 17.7191 52.897 17.7182 53.1541C17.7173 53.4111 17.8186 53.658 17.9997 53.8405C21.5947 57.4617 26.0281 60.1396 30.9063 61.6364C35.7846 63.1331 40.9569 63.4026 45.9643 62.4207C50.9717 61.4389 55.6593 59.2362 59.6111 56.0081C63.5629 52.7799 66.6568 48.6262 68.6181 43.9154C70.5794 39.2047 71.3476 34.0827 70.8544 29.0038C70.3612 23.925 68.622 19.0464 65.7909 14.801C62.9599 10.5557 59.1247 7.07478 54.6256 4.66727C50.1265 2.25976 45.1027 1.00007 40 1Z" fill="#009B97"/>
<path d="M40.0005 54.7656C36.4505 54.7745 32.9487 53.9447 29.7802 52.3437C29.552 52.2374 29.2914 52.224 29.0535 52.3065C28.8156 52.3889 28.6192 52.5608 28.5058 52.7856C28.3925 53.0104 28.3711 53.2705 28.4462 53.5108C28.5214 53.7511 28.6871 53.9528 28.9083 54.073C32.3464 55.8126 36.1474 56.7139 40.0005 56.7031C44.8415 56.6989 49.5745 55.2724 53.6116 52.6009C57.6486 49.9294 60.8118 46.1306 62.708 41.6765C64.6043 37.2223 65.15 32.3092 64.2775 27.5476C63.405 22.7859 61.1526 18.3855 57.8003 14.8931C54.4479 11.4008 50.1433 8.97036 45.4213 7.90384C40.6993 6.83733 35.768 7.18172 31.2401 8.89425C26.7121 10.6068 22.7872 13.6119 19.9528 17.5364C17.1184 21.4608 15.4996 26.1315 15.2974 30.9683C15.289 31.2252 15.3831 31.4749 15.5589 31.6625C15.7346 31.8501 15.9777 31.9602 16.2347 31.9685C16.4916 31.9769 16.7413 31.8828 16.9289 31.707C17.1165 31.5313 17.2265 31.2882 17.2349 31.0312C17.4247 26.5748 18.9195 22.2723 21.5336 18.6581C24.1476 15.0439 27.7659 12.2773 31.9388 10.7018C36.1118 9.12628 40.6557 8.81137 45.0061 9.79615C49.3565 10.7809 53.3218 13.022 56.4094 16.2411C59.4971 19.4601 61.5711 23.5153 62.3738 27.9029C63.1766 32.2906 62.6727 36.8174 60.9248 40.9211C59.1768 45.0249 56.2619 48.5247 52.542 50.986C48.822 53.4473 44.461 54.7616 40.0005 54.7656Z" fill="#009B97"/>
<path d="M52.1094 46.5314C52.1094 45.5036 51.7011 44.518 50.9744 43.7913C50.2477 43.0646 49.2621 42.6564 48.2344 42.6564H47.9244C48.5678 41.9941 49.0577 41.1985 49.3593 40.3258C49.661 39.4531 49.767 38.5248 49.67 37.6066C49.5729 36.6884 49.2751 35.8027 48.7976 35.0124C48.3202 34.2221 47.6748 33.5465 46.9071 33.0334C46.1395 32.5203 45.2684 32.1823 44.3555 32.0434C43.4427 31.9044 42.5105 31.9679 41.625 32.2294C40.7394 32.4908 39.9222 32.9438 39.2312 33.5563C38.5403 34.1687 37.9924 34.9256 37.6266 35.7734C37.1067 35.194 36.4704 34.731 35.7592 34.4147C35.048 34.0983 34.2781 33.9357 33.4997 33.9376H9.96875C9.71182 33.9376 9.46542 34.0397 9.28374 34.2213C9.10206 34.403 9 34.6494 9 34.9064C9 35.1633 9.10206 35.4097 9.28374 35.5914C9.46542 35.773 9.71182 35.8751 9.96875 35.8751H22.6788L24.0786 39.6048C24.1476 39.7894 24.2713 39.9486 24.4331 40.0612C24.5949 40.1737 24.7873 40.2341 24.9844 40.2345H25.0619L30.9131 39.7792C31.1701 39.7593 31.4085 39.6381 31.5761 39.4423C31.7437 39.2466 31.8267 38.9923 31.8068 38.7353C31.7869 38.4784 31.6657 38.2399 31.47 38.0723C31.2742 37.9047 31.0199 37.8218 30.763 37.8417L25.6334 38.2437L24.747 35.8751H33.4997C34.3989 35.8751 35.2614 36.2323 35.8972 36.8682C36.5331 37.5041 36.8903 38.3665 36.8903 39.2657C36.8903 40.165 36.5331 41.0274 35.8972 41.6633C35.2614 42.2991 34.3989 42.6564 33.4997 42.6564H21.8166L20.068 38.4132C20.0196 38.2956 19.9486 38.1886 19.8589 38.0983C19.7692 38.0081 19.6626 37.9364 19.5452 37.8874C19.4278 37.8384 19.3019 37.813 19.1747 37.8126C19.0475 37.8122 18.9214 37.8369 18.8038 37.8853C18.6861 37.9336 18.5791 38.0047 18.4889 38.0944C18.3986 38.184 18.327 38.2906 18.2779 38.408C18.2289 38.5254 18.2035 38.6513 18.2031 38.7785C18.2027 38.9058 18.2274 39.0318 18.2758 39.1495L19.7289 42.6564H9.96875C9.71182 42.6564 9.46542 42.7584 9.28374 42.9401C9.10206 43.1218 9 43.3682 9 43.6251C9 43.882 9.10206 44.1284 9.28374 44.3101C9.46542 44.4918 9.71182 44.5939 9.96875 44.5939H48.2344C48.7482 44.5939 49.241 44.798 49.6044 45.1613C49.9677 45.5247 50.1719 46.0175 50.1719 46.5314C50.1719 47.0452 49.9677 47.538 49.6044 47.9014C49.241 48.2647 48.7482 48.4689 48.2344 48.4689H9.96875C9.71182 48.4689 9.46542 48.5709 9.28374 48.7526C9.10206 48.9343 9 49.1807 9 49.4376C9 49.6945 9.10206 49.9409 9.28374 50.1226C9.46542 50.3043 9.71182 50.4064 9.96875 50.4064H48.2344C49.2621 50.4064 50.2477 49.9981 50.9744 49.2714C51.7011 48.5447 52.1094 47.5591 52.1094 46.5314ZM37.7186 42.6564C37.9141 42.4232 38.0891 42.1736 38.2417 41.9104C38.4281 42.1739 38.6337 42.4232 38.8569 42.6564H37.7186ZM43.3906 42.6564C42.5284 42.6564 41.6856 42.4007 40.9687 41.9217C40.2518 41.4427 39.693 40.7618 39.3631 39.9652C39.0331 39.1687 38.9468 38.2921 39.115 37.4465C39.2832 36.6009 39.6984 35.8241 40.3081 35.2144C40.9178 34.6048 41.6945 34.1896 42.5402 34.0214C43.3858 33.8532 44.2623 33.9395 45.0589 34.2694C45.8555 34.5994 46.5363 35.1581 47.0153 35.875C47.4943 36.5919 47.75 37.4348 47.75 38.297C47.75 38.8695 47.6372 39.4363 47.4182 39.9652C47.1991 40.4941 46.878 40.9747 46.4732 41.3795C46.0684 41.7843 45.5878 42.1054 45.0589 42.3245C44.53 42.5436 43.9631 42.6564 43.3906 42.6564Z" fill="#009B97"/>
</g>
<defs>
<clipPath id="clip0_801_698">
<rect width="62" height="62" fill="white" transform="translate(9 1)"/>
</clipPath>
</defs>
</svg>

<svg width="81" height="64" fill="none" xmlns="http://www.w3.org/2000/svg"><g clip-path="url(#clip0_801_698)" fill="#009B97"><path d="M40 1C23.807 1 9 14.446 9 31.031a.969.969 0 101.938 0C10.938 16.064 24.5 2.938 40 2.938a29.063 29.063 0 11-20.625 49.536A.97.97 0 1018 53.841 31.001 31.001 0 1040 1z"/><path d="M40 54.766a22.536 22.536 0 01-10.22-2.422.969.969 0 00-.872 1.729 24.417 24.417 0 0011.093 2.63 24.703 24.703 0 10-24.704-25.735.969.969 0 101.938.063A22.765 22.765 0 1140 54.766z"/><path d="M52.11 46.531a3.875 3.875 0 00-3.876-3.875h-.31a6.296 6.296 0 10-10.297-6.883 5.526 5.526 0 00-4.127-1.835H9.969a.969.969 0 000 1.937h12.71l1.4 3.73a.97.97 0 00.905.63h.078l5.851-.456a.971.971 0 10-.15-1.937l-5.13.402-.886-2.369H33.5a3.39 3.39 0 110 6.781H21.817l-1.749-4.243a.971.971 0 00-1.264-.528.968.968 0 00-.528 1.265l1.453 3.506h-9.76a.969.969 0 100 1.938h38.265a1.938 1.938 0 010 3.875H9.97a.969.969 0 100 1.937h38.265a3.875 3.875 0 003.875-3.875zm-14.391-3.875c.195-.233.37-.482.523-.746.186.264.392.513.615.746h-1.138zm5.672 0a4.36 4.36 0 110-8.718 4.36 4.36 0 010 8.718z"/></g><defs><clipPath id="clip0_801_698"><path fill="#fff" transform="translate(9 1)" d="M0 0h62v62H0z"/></clipPath></defs></svg>
